symbols/web/collections_bookmark/materialsymbolssharp/collections_bookmark_wght600fill1_40px.svg

<svg xmlns="http://www.w3.org/2000/svg" height="40" width="40"><path d="M8.667 31.333V2.208h29.125v29.125Zm-6.459 6.459V8.667h3.709v25.416h25.416v3.709ZM22.917 5.917V17.5l4-2.417 3.958 2.417V5.917Z"/></svg>

<svg xmlns="http://www.w3.org/2000/svg" height="40" width="40"><path d="M8.667 31.333V2.208H37.792V31.333ZM2.208 37.792V8.667H5.917V34.083H31.333V37.792ZM22.917 5.917V17.5L26.917 15.083L30.875 17.5V5.917Z"/></svg>
